X: 73
T:Irish Jig
M:6/8
L:1/8
Q:120
S:Playford
O:Manuscript
K:G
E2 F GFG| AGA B2 e| E2 F GFG|AGA BGE| E2 F GFG|AGA B2 d|e2 B c2 A |B2 A BGE:|
|:e2 f gfe|dBd e2|Bee Bee| gfe fdB|e2 f gfe| dBd e2 f| gfe dBG| AGA B GE:|

